src/parts/tops/ShortHairDreads01.svg

<svg>
  <g
    id="Top"
    strokeWidth="1"
    fillRule="evenodd"
  >
    <defs>
      <rect
        id="ShortHairDreads01-path1"
        x="0"
        y="0"
        width="264"
        height="280"
      />
      <path
        id="ShortHairDreads01-path2"
        d="M65.1802189,77.7372986 C67.3631845,76.1045334 80.4065113,75.4786511 82.757829,74.0894494 C83.4916461,73.6553857 84.0610723,73.215719 84.4997781,72.7800074 C84.938814,73.215719 85.5085703,73.6553857 86.2423874,74.0894494 C88.593375,75.4786511 101.636702,76.1045334 103.819667,77.7372986 C106.030032,79.3908276 107.643571,83.1846831 107.466966,86.15095 C107.255041,89.7101408 103.361486,98.2028927 93.6723269,99.1811016 C91.5576925,96.8281927 88.2368647,95.3104528 84.4997781,95.3104528 C80.7633517,95.3104528 77.4421938,96.8281927 75.3275594,99.1811016 C65.6387308,98.2028927 61.7451757,89.7101408 61.5332501,86.15095 C61.3566455,83.1846831 62.9701849,79.3908276 65.1802189,77.7372986 M103.141638,94.9063813 C103.142958,94.9057221 103.144609,94.905063 103.145929,94.9047334 C103.144278,94.905063 103.142958,94.9057221 103.141638,94.9063813 M65.8453747,94.9014375 C65.8493359,94.9030855 65.8565982,94.9057221 65.8618798,94.9076997 C65.8565982,94.9057221 65.8509864,94.9034151 65.8453747,94.9014375 M144.86259,55.9853335 C144.47439,50.0303878 143.277769,44.1519058 142.233986,38.2862777 C141.952739,36.7072349 140.423706,26 139.734783,26 C139.502391,35.1094058 138.701893,44.0803858 137.669664,53.1393651 C137.361018,55.8475668 137.037848,58.5564277 136.825262,61.2741874 C136.653609,63.4695546 136.959614,66.1220564 136.427819,68.2455739 C135.749129,70.9524573 132.348087,73.4783984 129.702978,74.410795 C123.102915,76.7373371 117.597802,67.1077689 111.960977,64.2911336 C104.643272,60.6347152 92.0637391,59.7639895 84.5816434,64.5297918 C76.9361472,59.7639895 64.356614,60.6347152 57.0389092,64.2911336 C51.4024147,67.1077689 45.8969708,76.7373371 39.2972383,74.410795 C36.6521296,73.4783984 33.2504268,70.9524573 32.572397,68.2455739 C32.0402723,66.1220564 32.346277,63.4695546 32.174954,61.2741874 C31.9623682,58.5564277 31.6388681,55.8475668 31.3302226,53.1393651 C30.2983232,44.0803858 29.4974953,35.1094058 29.2654335,26 C28.5761802,26 27.0468169,36.7072349 26.7658999,38.2862777 C25.7221169,44.1519058 24.5258266,50.0303878 24.1376265,55.9853335 C23.738533,62.1047422 24.2148704,68.1674622 25.4695887,74.1632765 C26.0687242,77.0277016 26.7685407,79.8756475 27.518863,82.7041478 C28.352701,85.8467429 27.198994,91.9661516 27.5723395,95.1921317 C28.2787581,101.29572 31.1542781,113.199679 34.3833375,118.45096 C35.9440605,120.989096 37.7734867,122.573742 39.816489,124.619148 C41.7825775,126.58809 42.6038717,129.640049 44.7260985,131.73687 C48.6820428,135.645092 54.4456266,137.971304 60.3656788,138.543134 C65.6773527,143.050212 74.505605,146 84.4997781,146 C94.4946114,146 103.322534,143.050212 108.634538,138.543134 C114.55393,137.971304 120.317843,135.645092 124.274118,131.73687 C126.396015,129.640049 127.217309,126.58809 129.183727,124.619148 C131.2264,122.573742 133.055826,120.989096 134.616879,118.45096 C137.845608,113.199679 140.721458,101.29572 141.427547,95.1921317 C141.800892,91.9661516 140.647185,85.8467429 141.481353,82.7041478 C142.231676,79.8756475 142.931162,77.0277016 143.530628,74.1632765 C144.784686,68.1674622 145.261353,62.1047422 144.86259,55.9853335 Z"
      />
      <path
        id="ShortHairDreads01-path3"
        d="M185.831676,73.928751 C187.588868,74.9173665 188.980206,84.8279256 189.047535,88.6176558 C189.08965,90.9562115 189.127358,99.8740101 186.654049,99.1031293 C185.901013,98.868423 184.751682,94.1472484 184.58821,91.3840965 C184.424737,88.6209446 182.855069,79.2200034 180.446757,74.8947261 C179.896491,73.9063366 178.320781,72.1708928 179.001547,71.3348066 C179.846064,70.2980597 180.666198,70.8995898 181.697184,71.3146953 C182.8124,71.7641482 185.6344,73.8180261 185.831676,73.928751 Z M186.636742,70.9565876 C185.890663,71.9188016 180.795829,69.217693 178.671174,68.0439722 C160.825581,58.1840558 157.361562,55.0486831 129.245707,55.4578453 C101.129853,55.8670074 81.8674779,69.0400225 80.7839818,70.3874406 C80.0301584,71.3248831 79.0677773,73.8279219 78.2764086,80.8005402 C77.48504,87.7731584 78.4952061,100.277789 75.6304859,100.262618 C73.1915094,100.249702 72.6608912,76.4770353 73.7137309,67.0463924 C73.8753757,65.5984852 74.4983655,63.0083957 74.0474223,61.7058802 C73.6532986,60.5682485 71.7253768,60.5705662 72.0331217,58.6750651 C72.3829065,56.5173393 74.5584694,57.5890837 75.5060085,56.5574014 C77.3005851,54.602966 74.5321945,54.1404306 74.0730403,52.4306721 C73.3905494,49.8892108 75.3628102,49.2336489 77.1396512,48.4310821 C79.1060001,47.5437559 78.8504766,48.3231462 80.4463492,46.5849138 C78.3147968,45.0224912 77.543628,42.8939014 80.4624425,41.7519655 C81.7019616,41.2669159 84.9268789,41.9089031 85.8980654,41.1801698 C86.1512899,40.9901231 86.251463,39.9008308 86.4074703,39.6780059 C87.9583471,37.4593592 87.5757186,35.8532324 87.4183976,33.3624282 C87.2889936,31.3242265 87.3064008,29.4532263 89.7466834,29.2496048 C91.3750712,29.1138571 92.6993269,30.4441843 94.1582415,30.835866 C95.7767762,31.2705896 95.1688403,31.5877757 96.4369334,30.7150174 C98.6630755,29.1817309 97.1479982,26.1942888 98.913344,24.4120212 C101.335891,21.9662454 102.923881,25.5513084 104.868882,25.8218105 C109.09126,26.4101607 107.736132,22.1218586 110.235861,20.5504965 C113.223647,18.6738677 113.512672,22.8012592 115.378847,22.948264 C116.996068,23.0750722 119.907657,19.9545311 121.317306,19.3731338 C125.499944,17.6471518 127.572378,22.5039387 131.554013,21.8844657 C134.443268,21.434843 135.223305,21.067662 137.830761,22.7115333 C140.361692,24.3070651 140.96306,23.1664535 143.828996,23.1436082 C145.853806,23.128378 147.093982,24.8202575 148.787729,24.9967295 C149.632467,25.085131 150.441078,24.2050888 151.347562,24.2603811 C154.58496,24.4567186 154.789576,28.6430444 157.361562,29.7955753 C159.711524,30.8487786 162.474332,29.3691289 164.806559,29.0953159 C170.497048,28.4275036 166.60015,33.7425217 166.760755,36.914713 C168.994451,37.4358517 171.261648,35.3509661 173.485163,35.7347015 C176.986623,36.3392753 175.664995,39.9680424 174.853429,42.4144804 C177.279589,42.3707762 183.612828,39.6776748 185.184725,43.1220237 C185.995306,44.8980006 184.106797,47.2689496 184.13767,49.0743937 C184.181023,51.615855 186.048513,53.7186196 186.709327,56.1240021 C187.601032,59.3710203 188.871834,68.0740038 186.636742,70.9565876 Z"
      />
    </defs>
    <mask
      id="ShortHairDreads01-mask2"
      fill="white"
    >
      <use href="#ShortHairDreads01-path1" />
    </mask>
    <g id="Mask" />
    <g
      id="Top/Short-Hair/Dreads-01"
      mask="url('#ShortHairDreads01-mask2')"
    >
      <g transform="translate(-1.000000, 0.000000)">
        <g
          id="Hair"
          strokeWidth="1"
          fillRule="evenodd"
          transform="translate(1.000000, 0.000000)"
        >
          <mask
            id="ShortHairDreads01-mask1"
            fill="white"
          >
            <use href="#ShortHairDreads01-path3" />
          </mask>
          <use
            class="CustomColor"
            fill="var(--avataaar-hair-color)"
            href="#ShortHairDreads01-path3"
          />
        </g>
      </g>
    </g>
  </g>
</svg>

<svg>
  <g id="Top">
    <defs>
      <path id="ShortHairDreads01-path1" d="M0 0h264v280H0z"/>
      <path id="ShortHairDreads01-path2" d="M65.18 77.737c2.183-1.632 15.227-2.258 17.578-3.648.734-.434 1.303-.873 1.742-1.309.439.436 1.009.875 1.742 1.31 2.351 1.389 15.395 2.015 17.578 3.647 2.21 1.654 3.824 5.448 3.647 8.414-.212 3.56-4.106 12.052-13.795 13.03-2.114-2.353-5.435-3.87-9.172-3.87-3.737 0-7.058 1.517-9.172 3.87-9.69-.978-13.583-9.47-13.795-13.03-.176-2.966 1.437-6.76 3.647-8.414m.665 17.164.017.007-.017-.007m79.018-38.916c-.389-5.955-1.585-11.833-2.629-17.699-.281-1.579-1.81-12.286-2.5-12.286-.232 9.11-1.032 18.08-2.064 27.14-.309 2.708-.632 5.416-.845 8.134-.171 2.196.135 4.848-.397 6.972-.679 2.706-4.08 5.232-6.725 6.165-6.6 2.326-12.105-7.303-17.742-10.12-7.318-3.656-19.897-4.527-27.38.239-7.645-4.766-20.224-3.895-27.542-.239-5.637 2.817-11.142 12.446-17.742 10.12-2.645-.933-6.047-3.459-6.725-6.165-.532-2.124-.226-4.776-.397-6.972-.213-2.718-.536-5.426-.845-8.135C30.298 44.08 29.497 35.11 29.265 26c-.689 0-2.218 10.707-2.5 12.286-1.043 5.866-2.24 11.744-2.627 17.7-.4 6.119.077 12.181 1.332 18.177a165.44 165.44 0 0 0 2.049 8.541c.834 3.143-.32 9.262.053 12.488.707 6.104 3.582 18.008 6.811 23.259 1.561 2.538 3.39 4.123 5.433 6.168 1.967 1.97 2.788 5.021 4.91 7.118 3.956 3.908 9.72 6.234 15.64 6.806C65.677 143.05 74.506 146 84.5 146c9.995 0 18.823-2.95 24.135-7.457 5.919-.572 11.683-2.898 15.64-6.806 2.121-2.097 2.942-5.149 4.909-7.118 2.042-2.045 3.872-3.63 5.433-6.168 3.229-5.251 6.104-17.155 6.81-23.259.374-3.226-.78-9.345.054-12.488.75-2.828 1.45-5.676 2.05-8.54 1.254-5.997 1.73-12.06 1.332-18.179Z"/>
      <path id="ShortHairDreads01-path3" d="M185.832 73.929c1.757.988 3.148 10.899 3.216 14.689.042 2.338.08 11.256-2.394 10.485-.753-.235-1.902-4.956-2.066-7.719-.163-2.763-1.733-12.164-4.141-16.49-.55-.988-2.126-2.723-1.445-3.56.844-1.036 1.664-.434 2.695-.02 1.115.45 3.937 2.504 4.135 2.615Zm.805-2.972c-.746.962-5.841-1.74-7.966-2.913-17.845-9.86-21.31-12.995-49.425-12.586-28.116.409-47.379 13.582-48.462 14.93-.754.937-1.716 3.44-2.508 10.413-.791 6.972.22 19.477-2.646 19.462-2.438-.013-2.97-23.786-1.916-33.217.161-1.448.784-4.038.333-5.34-.394-1.138-2.322-1.135-2.014-3.03.35-2.159 2.525-1.087 3.473-2.119 1.795-1.954-.974-2.417-1.433-4.126-.682-2.542 1.29-3.197 3.067-4 1.966-.887 1.71-.108 3.306-1.846-2.131-1.563-2.902-3.691.016-4.833 1.24-.485 4.465.157 5.436-.572.253-.19.353-1.28.51-1.502 1.55-2.219 1.168-3.825 1.01-6.316-.129-2.038-.112-3.909 2.329-4.112 1.628-.136 2.952 1.194 4.411 1.586 1.619.435 1.01.752 2.279-.121 2.226-1.533.711-4.52 2.476-6.303 2.423-2.446 4.01 1.14 5.956 1.41 4.222.588 2.867-3.7 5.367-5.272 2.988-1.876 3.277 2.251 5.143 2.398 1.617.127 4.529-2.993 5.938-3.575 4.183-1.726 6.255 3.13 10.237 2.511 2.89-.45 3.67-.816 6.277.828 2.53 1.595 3.132.454 5.998.432 2.025-.016 3.265 1.676 4.959 1.853.844.088 1.653-.792 2.56-.737 3.237.197 3.442 4.383 6.014 5.536 2.35 1.053 5.112-.427 7.445-.7 5.69-.668 1.793 4.647 1.954 7.819 2.233.52 4.5-1.564 6.724-1.18 3.502.604 2.18 4.233 1.368 6.68 2.427-.044 8.76-2.737 10.332.707.81 1.776-1.078 4.147-1.047 5.952.043 2.542 1.91 4.645 2.571 7.05.892 3.247 2.163 11.95-.072 14.833Z"/>
    </defs>
    <mask id="ShortHairDreads01-mask2" fill="#fff">
      <use href="#ShortHairDreads01-path1"/>
    </mask>
    <g id="Top/Short-Hair/Dreads-01" mask="url('#ShortHairDreads01-mask2')">
      <g transform="translate(-1)">
        <g id="Hair" transform="translate(1)">
          <mask id="ShortHairDreads01-mask1" fill="#fff">
            <use href="#ShortHairDreads01-path3"/>
          </mask>
          <use fill="var(--avataaar-hair-color)" class="CustomColor" href="#ShortHairDreads01-path3"/>
        </g>
      </g>
    </g>
  </g>
</svg>
